school/img/country/MS.svg

<svg width="13" height="12" viewBox="0 0 13 12" fill="none" xmlns="http://www.w3.org/2000/svg">
<rect width="13" height="12" rx="2" fill="white"/>
<mask id="mask0" mask-type="alpha" maskUnits="userSpaceOnUse" x="0" y="0" width="13" height="12">
<rect width="13" height="12" rx="2" fill="white"/>
</mask>
<g mask="url(#mask0)">
<rect width="13" height="12" fill="#07319C"/>
<path fill-rule="evenodd" clip-rule="evenodd" d="M8.04761 5.99998C8.04761 5.53229 8.04761 5.00384 8.04761 4.53304C8.04761 3.79666 8.64456 3.19998 9.38094 3.19998H9.80951C10.5459 3.19998 11.1428 3.79666 11.1428 4.53304C11.1428 5.00384 11.1428 5.53229 11.1428 5.99998C11.1428 7.99998 9.59523 8.79998 9.59523 8.79998C9.59523 8.79998 8.04761 7.99998 8.04761 5.99998Z" fill="#08B9D6"/>
<mask id="mask1" mask-type="alpha" maskUnits="userSpaceOnUse" x="8" y="3" width="4" height="6">
<path fill-rule="evenodd" clip-rule="evenodd" d="M8.04761 5.99998C8.04761 5.53229 8.04761 5.00384 8.04761 4.53304C8.04761 3.79666 8.64456 3.19998 9.38094 3.19998H9.80951C10.5459 3.19998 11.1428 3.79666 11.1428 4.53304C11.1428 5.00384 11.1428 5.53229 11.1428 5.99998C11.1428 7.99998 9.59523 8.79998 9.59523 8.79998C9.59523 8.79998 8.04761 7.99998 8.04761 5.99998Z" fill="white"/>
</mask>
<g mask="url(#mask1)">
<path fill-rule="evenodd" clip-rule="evenodd" d="M8.04761 7.19998H11.1428V8.79998H9.90475H9.2857H8.04761L8.04761 7.19998Z" fill="#A63D09"/>
<path fill-rule="evenodd" clip-rule="evenodd" d="M9.90479 3.99997H9.28575V4.79997H8.66669V5.59997H9.28575V7.19997H9.90479V5.59997H10.5238V4.79997H9.90479V3.99997Z" fill="#262626"/>
</g>
<path d="M0 -0.333333H-0.75L-0.247423 0.223368L1.83333 2.5282V3.05406L-0.226093 4.95507L-0.333333 5.05406V5.2V5.6V6.29771L0.209446 5.85931L2.59399 3.93333H2.96491L5.00214 5.81385C5.08536 5.89067 5.19447 5.93333 5.30773 5.93333C5.69811 5.93333 5.90374 5.47067 5.64214 5.1809L3.7381 3.07179V2.54594L5.69028 0.743925C5.827 0.617721 5.90476 0.440121 5.90476 0.254056V0V-0.697712L5.36198 -0.259314L2.97744 1.66667H2.60652L0.535617 -0.244934L0.439852 -0.333333H0.309524H0Z" fill="#DB1E36" stroke="white" stroke-width="0.666667"/>
<path fill-rule="evenodd" clip-rule="evenodd" d="M0 2V3.6H2.16667V5.38095C2.16667 5.72284 2.44382 6 2.78571 6V6C3.1276 6 3.40476 5.72284 3.40476 5.38095V3.6H5.21429C5.58247 3.6 5.88095 3.30152 5.88095 2.93333V2.66667C5.88095 2.29848 5.58248 2 5.21429 2H3.40476V0H2.16667V2H0Z" fill="white"/>
<path fill-rule="evenodd" clip-rule="evenodd" d="M0 2.4H2.47619V2V0H3.09524V2V2.4H5.57143V3.2H3.09524V3.6V5.6H2.47619V3.6V3.2H0V2.4Z" fill="#DB1E36"/>
</g>
</svg>

<svg width="13" height="12" fill="none" xmlns="http://www.w3.org/2000/svg"><rect width="13" height="12" rx="2" fill="#fff"/><mask id="a" maskUnits="userSpaceOnUse" x="0" y="0" width="13" height="12"><rect width="13" height="12" rx="2" fill="#fff"/></mask><g mask="url(#a)"><path fill="#07319C" d="M0 0h13v12H0z"/><path fill-rule="evenodd" clip-rule="evenodd" d="M8.048 6V4.533c0-.736.597-1.333 1.333-1.333h.429c.736 0 1.333.597 1.333 1.333V6c0 2-1.548 2.8-1.548 2.8S8.048 8 8.048 6z" fill="#08B9D6"/><mask id="b" maskUnits="userSpaceOnUse" x="8" y="3" width="4" height="6"><path fill-rule="evenodd" clip-rule="evenodd" d="M8.048 6V4.533c0-.736.597-1.333 1.333-1.333h.429c.736 0 1.333.597 1.333 1.333V6c0 2-1.548 2.8-1.548 2.8S8.048 8 8.048 6z" fill="#fff"/></mask><g mask="url(#b)" fill-rule="evenodd" clip-rule="evenodd"><path d="M8.048 7.2h3.095v1.6H8.048V7.2z" fill="#A63D09"/><path d="M9.905 4h-.62v.8h-.618v.8h.619v1.6h.619V5.6h.619v-.8h-.62V4z" fill="#262626"/></g><path d="M0-.333h-.75l.503.556 2.08 2.305v.526l-2.06 1.901-.106.1v1.242l.542-.439 2.385-1.926h.37l2.038 1.88a.45.45 0 00.64-.632L3.738 3.07v-.525L5.69.744a.667.667 0 00.215-.49v-.952l-.543.439-2.385 1.926h-.37L.536-.245.44-.333H0z" fill="#DB1E36" stroke="#fff" stroke-width=".667"/><path fill-rule="evenodd" clip-rule="evenodd" d="M0 2v1.6h2.167v1.781a.62.62 0 001.238 0V3.6h1.81a.667.667 0 00.666-.667v-.266A.667.667 0 005.214 2h-1.81V0H2.168v2H0z" fill="#fff"/><path fill-rule="evenodd" clip-rule="evenodd" d="M0 2.4h2.476V0h.62v2.4H5.57v.8H3.095v2.4h-.619V3.2H0v-.8z" fill="#DB1E36"/></g></svg>
